X:137
T:Young Fox. JJo8.137, The
%%VWML:JohnsonVol8-2184-p69-0
F:http://www.vwml.org/record/JohnsonVol8/2184/p69
Z:Transcribed by Simon Furey and Lewis Jones
Z:vmp.Simon Wilson 2013 www.village-music-project.org.uk
Z:Dance added by John Chambers 2017
M:6/8
L:1/8
%Q:3/8=100
K:D
d3f2d | gecd2A | (B/c/d)c (dAF) | (BGE) (AFD) | (d/e/f)e (fd)B | (ec)A (^GB)d |
f3(ed)c | (dc)BA3 :: (c/d/e)d (ec)A | (Ac)e (ed)c | (d/e/f)e (fd)(B | B)df- fed |
(e/f/g)f gec | (fd)B ^Ace | (gf)e (dc)B | gf^AB2c | (B/c/d)c dAF | (DA)=c (BA)G |
(B/c/d)B (ge)g | (Be)dc3 | (f/g/a)f (ge)c | (dB)^G (AB)c | (dA)F (Bg)f | edcd3 :|
W: The 1st Man cast off one Cu, and turn the 3d
W:Wo. and stand in the 2d Man's Place .| the 1st
W:Wo. do the same with the 3d Man ..| then hands
W:4 round at Bottom and lead thro the 2d Cu.
W:and cast off and turn .|
W:
T:Downie's Humour. JJo8.138
B:J.Johnson Choice Collection Vol 8 1758
Z:vmp.Simon Wilson 2013 www.village-music-project.org.uk
Z:Dance added by John Chambers 2017
M:2/4
L:1/8
%Q:1/2=80
K:D
|: D |\
DFAd | fgaf | ecTBA | BGEF |\
DFAd | fgaf | geaf | d/d/d d :|
|: f/g/ |\
afdf | edef | dBAF | TEDEF |\
afdf | edef | dBAF | D/D/D D :|
W: Hands 4 across quite round .| the same
W:back again ..| 1st Man foot it to the 2d
W:Wo. and turn .| 1st Wo. do the same ..|
W:1st Cu. lead down two Cu. and cast up
W:one .| lead thro' the 2d Cu. and cast
W:off ..| hands 4 round at Bottom .|
W:Right and Left at top ..|
W:
